i-home/img/icq/viber.svg

<svg width="17" height="17" viewBox="0 0 17 17" fill="none" xmlns="http://www.w3.org/2000/svg">
<path d="M14.9 9.49996C14.5 12.9 12.1 13.1 11.6 13.3C11.4 13.4 9.6 13.8 7.4 13.7L5 16.3V13.2C1.7 12.3 1.8 8.79996 1.8 6.99996C1.8 5.19996 2.2 3.69996 3.2 2.69996C5 1.09996 8.6 1.29996 8.6 1.29996C11.7 1.29996 13.2 2.29996 13.5 2.59996C14.7 3.59996 15.3 5.99996 14.9 9.49996ZM14.4 1.79996C14 1.39996 12.4 0.199961 8.7 0.0999607C8.7 0.0999607 4.4 -0.200039 2.3 1.79996C1.1 2.99996 0.699997 4.79996 0.599997 6.99996C0.599997 9.19996 0.499997 13.3 4.3 14.4V16.1C4.3 16.1 4.3 16.8 4.7 16.9C5.2 17.1 5.5 16.5 6.1 16C6.4 15.7 6.8 15.2 7.1 14.9C9.7 15.1 11.7 14.6 12 14.5C12.5 14.3 15.5 13.9 16 9.89996C16.5 5.59996 15.8 2.99996 14.4 1.79996Z" fill="#834995"/>
<path d="M12.1 9.99994C12.1 9.99994 11.6 9.59994 11.4 9.39994C11.2 9.19994 10.8 8.99994 10.6 8.89994C10.2 8.69994 9.8 8.79994 9.7 8.99994L9.3 9.39994C9.2 9.59994 8.9 9.59994 8.9 9.59994C8.4 9.49994 7.9 9.19994 7.4 8.69994C6.9 8.19994 6.6 7.69994 6.5 7.09994C6.5 6.89994 6.5 6.79994 6.6 6.59994C6.8 6.39994 7.2 6.19994 7.3 5.89994C7.5 5.49994 6.8 4.69994 6.7 4.49994C6.7 4.49994 6.2 3.79994 6 3.69994C5.7 3.59994 5.5 3.49994 5.2 3.69994C4.3 4.29994 4 4.59994 4.1 5.09994V5.29994C4.5 6.69994 5.4 8.09994 6.6 9.39994C7.8 10.6999 9.2 11.3999 10.5 11.9999C10.8 12.0999 11.2 11.9999 11.6 11.6999C11.9 11.3999 12.1 11.1999 12.3 10.8999C12.4 10.4999 12.3 10.1999 12.1 9.99994Z" fill="#834995"/>
<path d="M10 7.09995C10 7.09995 9.9 6.99995 10 7.09995C9.9 6.59995 9.8 6.29995 9.7 6.19995C9.5 5.99995 9.2 5.89995 8.9 5.89995C8.8 5.89995 8.8 5.79995 8.8 5.79995C8.8 5.69995 8.8 5.69995 8.9 5.69995C9.3 5.69995 9.6 5.79995 9.8 6.09995C10 6.29995 10.1 6.59995 10.1 6.99995C10.1 6.99995 10.1 6.99995 10 7.09995Z" fill="#834995"/>
<path d="M11 7.39998C10.9 7.39998 10.9 7.39998 10.9 7.29998C10.9 6.59998 10.7 6.09998 10.3 5.59998C10.1 5.39998 9.9 5.19998 9.6 5.09998C9.3 4.89998 9 4.89998 8.6 4.79998C8.5 4.79998 8.5 4.69998 8.5 4.69998C8.5 4.59998 8.6 4.59998 8.6 4.59998C9.4 4.69998 10 4.99998 10.5 5.39998C10.9 5.89998 11.1 6.59998 11 7.39998C11.1 7.29998 11.1 7.39998 11 7.39998Z" fill="#834995"/>
<path d="M12 7.79998C11.9 7.79998 11.9 7.69998 12 7.79998C11.9 7.09998 11.8 6.59998 11.6 6.09998C11.4 5.59998 11.2 5.19998 10.8 4.89998C10.5 4.59998 10.1 4.29998 9.6 4.09998C9.3 3.89998 8.8 3.79998 8.3 3.79998C8.2 3.79998 8.2 3.79998 8.2 3.69998C8.2 3.59998 8.2 3.59998 8.3 3.59998C9.4 3.59998 10.3 3.99998 11 4.69998C11.4 5.09998 11.6 5.49998 11.8 5.99998C12 6.49998 12.1 7.09998 12.1 7.69998L12 7.79998Z" fill="#834995"/>
</svg>

<?xml version="1.0" encoding="utf-8"?>
<!-- Generator: Adobe Illustrator 21.0.0, SVG Export Plug-In . SVG Version: 6.00 Build 0)  -->
<svg version="1.1" id="Слой_1" xmlns="http://www.w3.org/2000/svg" xmlns:xlink="http://www.w3.org/1999/xlink" x="0px" y="0px"
	 viewBox="0 0 17 17" style="enable-background:new 0 0 17 17;" xml:space="preserve">
<style type="text/css">
	.st0{fill:#834995;}
</style>
<g>
	<path class="st0" d="M14.9,9.5c-0.4,3.4-2.8,3.6-3.3,3.8c-0.2,0.1-2,0.5-4.2,0.4L5,16.3l0-3.1l0,0C1.7,12.3,1.8,8.8,1.8,7
		c0-1.8,0.4-3.3,1.4-4.3C5,1.1,8.6,1.3,8.6,1.3c3.1,0,4.6,1,4.9,1.3C14.7,3.6,15.3,6,14.9,9.5 M14.4,1.8C14,1.4,12.4,0.2,8.7,0.1
		c0,0-4.3-0.3-6.4,1.7C1.1,3,0.7,4.8,0.6,7c0,2.2-0.1,6.3,3.7,7.4l0,0l0,1.7c0,0,0,0.7,0.4,0.8c0.5,0.2,0.8-0.4,1.4-0.9
		c0.3-0.3,0.7-0.8,1-1.1c2.6,0.2,4.6-0.3,4.9-0.4c0.5-0.2,3.5-0.6,4-4.6C16.5,5.6,15.8,3,14.4,1.8"/>
	<path class="st0" d="M12.1,10c0,0-0.5-0.4-0.7-0.6c-0.2-0.2-0.6-0.4-0.8-0.5C10.2,8.7,9.8,8.8,9.7,9L9.3,9.4
		C9.2,9.6,8.9,9.6,8.9,9.6c-0.5-0.1-1-0.4-1.5-0.9c-0.5-0.5-0.8-1-0.9-1.6l0,0c0-0.2,0-0.3,0.1-0.5l0,0c0.2-0.2,0.6-0.4,0.7-0.7
		c0.2-0.4-0.5-1.2-0.6-1.4c0,0-0.5-0.7-0.7-0.8C5.7,3.6,5.5,3.5,5.2,3.7l0,0C4.3,4.3,4,4.6,4.1,5.1l0,0.2c0.4,1.4,1.3,2.8,2.5,4.1
		c1.2,1.3,2.6,2,3.9,2.6c0.3,0.1,0.7,0,1.1-0.3l0,0c0.3-0.3,0.5-0.5,0.7-0.8l0,0C12.4,10.5,12.3,10.2,12.1,10"/>
	<path class="st0" d="M10,7.1C10,7.1,9.9,7,10,7.1C9.9,6.6,9.8,6.3,9.7,6.2C9.5,6,9.2,5.9,8.9,5.9c-0.1,0-0.1-0.1-0.1-0.1
		c0-0.1,0-0.1,0.1-0.1c0.4,0,0.7,0.1,0.9,0.4c0.2,0.2,0.3,0.5,0.3,0.9C10.1,7,10.1,7,10,7.1L10,7.1"/>
	<path class="st0" d="M11,7.4L11,7.4c-0.1,0-0.1,0-0.1-0.1c0-0.7-0.2-1.2-0.6-1.7c-0.2-0.2-0.4-0.4-0.7-0.5C9.3,4.9,9,4.9,8.6,4.8
		c-0.1,0-0.1-0.1-0.1-0.1c0-0.1,0.1-0.1,0.1-0.1C9.4,4.7,10,5,10.5,5.4C10.9,5.9,11.1,6.6,11,7.4C11.1,7.3,11.1,7.4,11,7.4"/>
	<path class="st0" d="M12,7.8C11.9,7.8,11.9,7.7,12,7.8c-0.1-0.7-0.2-1.2-0.4-1.7c-0.2-0.5-0.4-0.9-0.8-1.2
		c-0.3-0.3-0.7-0.6-1.2-0.8C9.3,3.9,8.8,3.8,8.3,3.8c-0.1,0-0.1,0-0.1-0.1c0-0.1,0-0.1,0.1-0.1h0c1.1,0,2,0.4,2.7,1.1
		c0.4,0.4,0.6,0.8,0.8,1.3c0.2,0.5,0.3,1.1,0.3,1.7C12.1,7.7,12,7.8,12,7.8L12,7.8z"/>
</g>
</svg>
